assets/images/speaker.svg

<svg xmlns="http://www.w3.org/2000/svg" viewBox="0 0 170 240" enable-background="new 0 0 170 240"><g fill="#D64546"><path d="M154 88.3h-6.9c-2.5 0-4.6 2.1-4.6 4.6v31.7c0 15.4-12.1 41.4-57.5 41.4s-57.5-26-57.5-41.4v-31.7c0-2.5-2.1-4.6-4.6-4.6h-6.9c-2.5 0-4.6 2.1-4.6 4.6v31.7c0 25.7 18.9 53.3 62.1 57v30.4h-29.9c-2.5 0-4.6 2.1-4.6 4.6v13.8c0 2.5 2.1 4.6 4.6 4.6h82.8c2.5 0 4.6-2.1 4.6-4.6v-13.8c0-2.5-2.1-4.6-4.6-4.6h-29.9v-30.4c43.2-3.8 62.1-31.3 62.1-57v-31.7c0-2.5-2.1-4.6-4.6-4.6zM85 143c27 0 34.5-11.1 34.5-18.4v-36.3h-69v36.3c0 7.3 7.5 18.4 34.5 18.4zM119.5 23.4c0-7.3-7.5-18.4-34.5-18.4s-34.5 11.1-34.5 18.4v48.8h69v-48.8z"/></g></svg>

<?xml version="1.0" encoding="utf-8"?>
<!-- Generator: Adobe Illustrator 17.1.0, SVG Export Plug-In . SVG Version: 6.00 Build 0)  -->
<!DOCTYPE svg PUBLIC "-//W3C//DTD SVG 1.1//EN" "http://www.w3.org/Graphics/SVG/1.1/DTD/svg11.dtd">
<svg version="1.1" id="Layer_1" xmlns="http://www.w3.org/2000/svg" xmlns:xlink="http://www.w3.org/1999/xlink" x="0px" y="0px"
	 viewBox="0 0 170 240" enable-background="new 0 0 170 240" xml:space="preserve">
<g>
	<g>
		<path fill="#D64546" d="M154,88.3h-6.9c-2.5,0-4.6,2.1-4.6,4.6v31.7c0,15.4-12.1,41.4-57.5,41.4s-57.5-26-57.5-41.4V92.9
			c0-2.5-2.1-4.6-4.6-4.6H16c-2.5,0-4.6,2.1-4.6,4.6v31.7c0,25.7,18.9,53.3,62.1,57V212H43.6c-2.5,0-4.6,2.1-4.6,4.6v13.8
			c0,2.5,2.1,4.6,4.6,4.6h82.8c2.5,0,4.6-2.1,4.6-4.6v-13.8c0-2.5-2.1-4.6-4.6-4.6H96.5v-30.4c43.2-3.8,62.1-31.3,62.1-57V92.9
			C158.6,90.4,156.5,88.3,154,88.3z"/>
		<path fill="#D64546" d="M85,143c27,0,34.5-11.1,34.5-18.4V88.3h-69v36.3C50.5,131.9,58,143,85,143z"/>
		<path fill="#D64546" d="M119.5,23.4C119.5,16.1,112,5,85,5C58,5,50.5,16.1,50.5,23.4v48.8h69V23.4z"/>
	</g>
</g>
</svg>
